images/mult/bottom.svg

<svg width="218" height="193" viewBox="0 0 218 193" fill="none" xmlns="http://www.w3.org/2000/svg">
<path fill-rule="evenodd" clip-rule="evenodd" d="M195.256 88.7305C187.485 92.8518 179.656 95.8727 171.824 98.4299C159.621 102.407 147.412 104.666 135.133 105.339C121.147 106.098 107.2 104.809 93.3641 102.173C79.5849 99.5386 65.9479 95.6267 52.7118 90.571C51.5307 90.1178 50.3978 89.5859 49.1792 89.2345C48.499 89.0424 47.8402 88.8967 47.1689 88.785C56.8416 86.9812 70.3479 85.2754 80.7552 83.568C87.6228 82.4296 93.0856 81.2375 95.3632 80.8023C95.788 80.7464 96.1029 80.361 96.0536 79.9189C96.0149 79.5 95.6131 79.1789 95.1883 79.2348C92.8533 79.302 87.2748 79.2374 80.3343 79.5783C73.5715 79.9073 65.5933 80.7148 58.1112 81.377C48.4791 82.2321 39.7467 83.2058 35.5959 84.1283C35.0488 84.2549 34.5831 84.5271 34.1493 84.5026C32.2534 84.4227 31.9395 84.9627 31.0871 84.9771C29.5646 85.4006 29.5859 86.7575 29.0268 87.6506C27.9691 89.3241 28.8307 91.4329 30.3554 93.3614C31.4237 94.6982 34.9473 95.9543 36.3958 97.1995C41.7126 101.697 47.1625 106.147 52.9227 110.171C58.0775 113.799 63.4294 117.153 68.8856 120.276C72.5436 122.371 76.2596 124.257 79.9925 126.149C80.3442 126.239 80.646 126.466 81.0244 126.432C83.1156 126.294 82.6003 125.758 84.5457 124.969C84.7198 125.072 84.9393 124.998 85.0356 124.841C85.1382 124.667 85.0818 124.453 84.9077 124.351C84.6513 122.272 85.3378 122.447 84.4183 120.548C84.2789 120.246 83.9691 120.094 83.7369 119.835C76.716 115.155 69.9501 109.99 63.0977 104.852C61.0189 103.278 58.9339 101.722 56.8551 100.149C67.6585 104.542 78.7659 108.161 90.0662 110.52C99.7357 112.55 109.552 113.709 119.344 113.78C135.595 113.931 151.898 111.479 167.514 105.288C177.233 101.419 186.508 95.9813 195.572 89.2321C195.707 89.1274 195.752 88.9514 195.671 88.8059C195.567 88.6711 195.391 88.6258 195.256 88.7305Z" fill="#FF5100"/>
</svg>

<svg width="218" height="193" fill="none" xmlns="http://www.w3.org/2000/svg"><path fill-rule="evenodd" clip-rule="evenodd" d="M195.256 88.73c-7.771 4.122-15.6 7.143-23.432 9.7-12.203 3.977-24.412 6.236-36.691 6.909-13.986.759-27.933-.53-41.769-3.166-13.78-2.634-27.416-6.546-40.652-11.602-1.181-.453-2.314-.985-3.533-1.337a18.497 18.497 0 00-2.01-.449c9.673-1.804 23.179-3.51 33.586-5.217 6.868-1.138 12.33-2.33 14.608-2.766a.8.8 0 00.69-.883.778.778 0 00-.865-.684c-2.335.067-7.913.002-14.854.343-6.763.33-14.74 1.137-22.223 1.799-9.632.855-18.364 1.829-22.515 2.751-.547.127-1.013.4-1.447.375-1.896-.08-2.21.46-3.062.474-1.522.424-1.501 1.78-2.06 2.674-1.058 1.673-.196 3.782 1.328 5.71 1.069 1.337 4.592 2.593 6.04 3.838 5.318 4.498 10.767 8.948 16.528 12.972 5.154 3.628 10.506 6.982 15.963 10.105 3.658 2.095 7.374 3.981 11.107 5.873.351.09.653.317 1.031.283 2.092-.138 1.576-.674 3.522-1.463a.366.366 0 00.49-.128.353.353 0 00-.128-.49c-.257-2.079.43-1.904-.49-3.803-.14-.302-.449-.454-.681-.713-7.021-4.68-13.787-9.845-20.64-14.983-2.078-1.574-4.163-3.13-6.242-4.703 10.804 4.393 21.91 8.012 33.211 10.371 9.67 2.03 19.486 3.189 29.278 3.26 16.251.151 32.554-2.301 48.17-8.492 9.719-3.869 18.994-9.307 28.058-16.056a.332.332 0 00.099-.426c-.104-.135-.28-.18-.415-.075z" fill="#FF5100"/></svg>
